X:827
T:Reel 827
M:4/4
K:Amaj
L:1/8
E|A2AF ECA,C|B,2FB, GB,B,G|A2AF EA,CA,|B,BAB cAAG|A2CA, EA,CA,|B,BBA GEFG|AGAE FAEC|DFED CA,A,|B,|CA,E,A, CDEC|B,CDE FB,B,D|CA,E,A, CDEC|DFED CA,A,D|CA,E,A, CA,EC|B,CDE FEFG|AGAE FAEC|DFED CA,A,|
